svg/o365.svg

<?xml version="1.0" encoding="UTF-8"?>
<svg xmlns="http://www.w3.org/2000/svg" xmlns:xlink="http://www.w3.org/1999/xlink" width="145.455002" height="32" viewBox="0 0 145.455002 32">
<path fill-rule="nonzero" fill="rgb(92.156863%, 23.529412%, 0%)" fill-opacity="1" d="M 56.3125 16.101562 C 56.3125 17.925781 55.980469 19.527344 55.316406 20.902344 C 54.648438 22.277344 53.691406 23.335938 52.445312 24.074219 C 51.199219 24.816406 49.761719 25.1875 48.136719 25.1875 C 46.5625 25.1875 45.167969 24.828125 43.945312 24.105469 C 42.71875 23.386719 41.773438 22.363281 41.105469 21.03125 C 40.4375 19.707031 40.101562 18.203125 40.101562 16.519531 C 40.101562 14.710938 40.441406 13.117188 41.117188 11.738281 C 41.792969 10.359375 42.765625 9.300781 44.035156 8.5625 C 45.300781 7.828125 46.769531 7.457031 48.433594 7.457031 C 49.957031 7.457031 51.320312 7.820312 52.53125 8.546875 C 53.734375 9.269531 54.667969 10.292969 55.324219 11.605469 C 55.984375 12.921875 56.3125 14.417969 56.3125 16.101562 M 54.207031 16.363281 C 54.207031 14.132812 53.6875 12.390625 52.644531 11.140625 C 51.597656 9.890625 50.144531 9.261719 48.277344 9.261719 C 47.105469 9.261719 46.054688 9.5625 45.128906 10.152344 C 44.199219 10.746094 43.480469 11.589844 42.96875 12.683594 C 42.460938 13.777344 42.203125 14.996094 42.203125 16.339844 C 42.203125 17.710938 42.449219 18.933594 42.941406 20.007812 C 43.429688 21.078125 44.128906 21.90625 45.039062 22.492188 C 45.949219 23.078125 46.980469 23.371094 48.136719 23.371094 C 50.03125 23.371094 51.519531 22.75 52.59375 21.507812 C 53.671875 20.261719 54.207031 18.546875 54.207031 16.363281 M 64.933594 8.484375 C 64.535156 8.265625 64.085938 8.15625 63.628906 8.164062 C 62.257812 8.164062 61.570312 9.027344 61.570312 10.757812 L 61.570312 12.648438 L 64.441406 12.648438 L 64.441406 14.308594 L 61.570312 14.308594 L 61.570312 24.890625 L 59.609375 24.890625 L 59.609375 14.308594 L 57.53125 14.308594 L 57.53125 12.648438 L 59.609375 12.648438 L 59.609375 10.664062 C 59.609375 9.417969 59.976562 8.414062 60.710938 7.648438 C 61.445312 6.882812 62.378906 6.5 63.507812 6.5 C 64.105469 6.5 64.578125 6.574219 64.933594 6.71875 L 64.933594 8.488281 Z M 71.6875 8.484375 C 71.289062 8.265625 70.839844 8.15625 70.386719 8.164062 C 69.015625 8.164062 68.328125 9.027344 68.328125 10.757812 L 68.328125 12.648438 L 71.199219 12.648438 L 71.199219 14.308594 L 68.328125 14.308594 L 68.328125 24.890625 L 66.367188 24.890625 L 66.367188 14.308594 L 64.289062 14.308594 L 64.289062 12.648438 L 66.367188 12.648438 L 66.367188 10.664062 C 66.367188 9.417969 66.734375 8.414062 67.46875 7.648438 C 68.203125 6.882812 69.136719 6.5 70.265625 6.5 C 70.863281 6.5 71.335938 6.574219 71.6875 6.71875 Z M 75.304688 8.257812 C 75.304688 8.625 75.175781 8.929688 74.921875 9.171875 C 74.683594 9.410156 74.355469 9.542969 74.015625 9.535156 C 73.65625 9.535156 73.351562 9.421875 73.105469 9.183594 C 72.859375 8.949219 72.734375 8.640625 72.734375 8.257812 C 72.734375 7.914062 72.855469 7.617188 73.097656 7.367188 C 73.34375 7.117188 73.648438 6.992188 74.011719 6.992188 C 74.378906 6.992188 74.6875 7.113281 74.933594 7.363281 C 75.179688 7.609375 75.304688 7.90625 75.304688 8.257812 M 74.96875 24.886719 L 73.007812 24.886719 L 73.007812 12.644531 L 74.96875 12.644531 Z M 86.160156 24.328125 C 85.210938 24.902344 84.089844 25.1875 82.800781 25.1875 C 81.683594 25.1875 80.683594 24.929688 79.792969 24.417969 C 78.90625 23.902344 78.1875 23.144531 77.71875 22.234375 C 77.226562 21.292969 76.980469 20.238281 76.980469 19.066406 C 76.980469 17.042969 77.558594 15.417969 78.71875 14.1875 C 79.878906 12.960938 81.421875 12.347656 83.351562 12.347656 C 84.417969 12.347656 85.363281 12.554688 86.183594 12.96875 L 86.183594 14.976562 C 85.269531 14.339844 84.296875 14.019531 83.265625 14.019531 C 82 14.019531 80.96875 14.472656 80.175781 15.378906 C 79.382812 16.28125 78.988281 17.449219 78.988281 18.886719 C 78.988281 20.316406 79.363281 21.441406 80.117188 22.269531 C 80.871094 23.097656 81.878906 23.511719 83.148438 23.511719 C 84.214844 23.511719 85.21875 23.164062 86.160156 22.460938 Z M 98.207031 19.257812 L 89.5625 19.257812 C 89.597656 20.636719 89.960938 21.691406 90.660156 22.421875 C 91.355469 23.148438 92.320312 23.511719 93.554688 23.511719 C 94.941406 23.511719 96.207031 23.066406 97.347656 22.175781 L 97.347656 24.003906 C 96.277344 24.792969 94.859375 25.1875 93.089844 25.1875 C 91.34375 25.1875 89.984375 24.625 89 23.496094 C 88.019531 22.367188 87.53125 20.808594 87.53125 18.816406 C 87.53125 17.605469 87.777344 16.5 88.265625 15.5 C 88.757812 14.496094 89.433594 13.722656 90.292969 13.171875 C 91.148438 12.625 92.144531 12.339844 93.160156 12.347656 C 94.746094 12.347656 95.984375 12.863281 96.875 13.894531 C 97.761719 14.925781 98.207031 16.371094 98.207031 18.230469 Z M 96.199219 17.597656 C 96.183594 16.464844 95.910156 15.585938 95.378906 14.957031 C 94.851562 14.332031 94.101562 14.019531 93.140625 14.019531 C 92.230469 14.019531 91.453125 14.347656 90.808594 15 C 90.160156 15.652344 89.753906 16.519531 89.589844 17.59375 Z M 113.125 20.035156 C 113.125 21.582031 112.570312 22.828125 111.464844 23.769531 C 110.355469 24.714844 108.902344 25.1875 107.101562 25.1875 C 105.464844 25.1875 104.167969 24.875 103.203125 24.253906 L 103.203125 22.152344 C 104.359375 23.058594 105.679688 23.511719 107.171875 23.511719 C 108.375 23.511719 109.332031 23.214844 110.046875 22.621094 C 110.761719 22.03125 111.117188 21.226562 111.117188 20.214844 C 111.117188 17.972656 109.523438 16.855469 106.335938 16.855469 L 104.914062 16.855469 L 104.914062 15.191406 L 106.261719 15.191406 C 109.085938 15.191406 110.496094 14.140625 110.496094 12.035156 C 110.496094 10.089844 109.417969 9.117188 107.265625 9.117188 C 106.058594 9.117188 104.921875 9.523438 103.859375 10.339844 L 103.859375 8.4375 C 104.953125 7.785156 106.25 7.457031 107.757812 7.457031 C 109.175781 7.457031 110.320312 7.832031 111.195312 8.585938 C 112.066406 9.339844 112.503906 10.328125 112.503906 11.546875 C 112.503906 13.800781 111.363281 15.253906 109.085938 15.898438 L 109.085938 15.945312 C 110.292969 16.082031 111.273438 16.519531 112.015625 17.261719 C 112.753906 18.003906 113.125 18.925781 113.125 20.035156 M 126.023438 19.449219 C 126.023438 20.535156 125.792969 21.515625 125.324219 22.402344 C 124.859375 23.285156 124.21875 23.972656 123.394531 24.457031 C 122.574219 24.945312 121.652344 25.1875 120.632812 25.1875 C 118.917969 25.1875 117.574219 24.5 116.597656 23.121094 C 115.621094 21.742188 115.132812 19.816406 115.132812 17.34375 C 115.132812 15.382812 115.421875 13.652344 116 12.152344 C 116.578125 10.648438 117.398438 9.492188 118.457031 8.679688 C 119.515625 7.863281 120.738281 7.457031 122.125 7.457031 C 123.308594 7.457031 124.253906 7.621094 124.972656 7.949219 L 124.972656 9.800781 C 124.109375 9.351562 123.148438 9.121094 122.175781 9.121094 C 120.660156 9.121094 119.449219 9.800781 118.535156 11.160156 C 117.621094 12.519531 117.164062 14.328125 117.164062 16.59375 L 117.214844 16.59375 C 118.003906 14.972656 119.304688 14.164062 121.121094 14.164062 C 122.605469 14.164062 123.792969 14.648438 124.6875 15.617188 C 125.578125 16.585938 126.023438 17.863281 126.023438 19.449219 M 124.015625 19.699219 C 124.015625 18.503906 123.722656 17.558594 123.136719 16.867188 C 122.550781 16.171875 121.734375 15.828125 120.679688 15.828125 C 119.726562 15.828125 118.921875 16.164062 118.265625 16.835938 C 117.613281 17.507812 117.285156 18.324219 117.285156 19.28125 C 117.285156 20.484375 117.609375 21.492188 118.261719 22.300781 C 118.910156 23.109375 119.730469 23.511719 120.71875 23.511719 C 121.699219 23.511719 122.492188 23.160156 123.101562 22.457031 C 123.710938 21.75 124.015625 20.832031 124.015625 19.699219 M 137.5625 19.652344 C 137.5625 21.320312 137.011719 22.65625 135.90625 23.671875 C 134.804688 24.679688 133.328125 25.1875 131.488281 25.1875 C 129.894531 25.1875 128.710938 24.949219 127.9375 24.46875 L 127.9375 22.390625 C 129.101562 23.140625 130.292969 23.515625 131.511719 23.515625 C 132.722656 23.515625 133.699219 23.175781 134.441406 22.496094 C 135.183594 21.816406 135.554688 20.90625 135.554688 19.773438 C 135.554688 18.65625 135.179688 17.78125 134.429688 17.148438 C 133.679688 16.515625 132.59375 16.199219 131.167969 16.199219 C 130.027344 16.199219 129.058594 16.246094 128.261719 16.335938 L 128.847656 7.746094 L 136.773438 7.746094 L 136.773438 9.511719 L 130.542969 9.511719 L 130.199219 14.546875 L 131.777344 14.484375 C 133.5625 14.484375 134.972656 14.9375 136.007812 15.839844 C 137.042969 16.738281 137.5625 18.011719 137.5625 19.652344 M 31.449219 28.214844 L 31.449219 4.457031 L 22.9375 2 L 7.632812 7.746094 L 7.59375 7.753906 L 7.597656 24.933594 L 12.820312 22.886719 L 12.820312 8.910156 L 22.9375 6.492188 L 22.933594 27.042969 L 7.605469 24.933594 L 22.933594 30.59375 L 22.933594 30.597656 L 31.449219 28.242188 Z M 31.449219 28.214844 "/>
</svg>

<svg role="img" viewBox="0 0 145.455 32" height="32" width="145.455" xmlns="http://www.w3.org/2000/svg"><path d="M56.313 16.102c0 1.824-.333 3.425-.997 4.8-.668 1.375-1.625 2.434-2.87 3.172-1.247.742-2.684 1.113-4.31 1.113-1.574 0-2.968-.359-4.19-1.082-1.227-.718-2.173-1.742-2.84-3.074-.669-1.324-1.004-2.828-1.004-4.511 0-1.81.34-3.403 1.015-4.782.676-1.379 1.649-2.437 2.918-3.175 1.266-.735 2.735-1.106 4.399-1.106 1.523 0 2.886.363 4.097 1.09 1.203.723 2.137 1.746 2.793 3.058.66 1.317.989 2.813.989 4.497m-2.106.261c0-2.23-.52-3.972-1.562-5.222-1.047-1.25-2.5-1.88-4.368-1.88-1.172 0-2.222.302-3.148.891-.93.594-1.649 1.438-2.16 2.532-.508 1.093-.766 2.312-.766 3.656 0 1.37.246 2.594.738 3.668.489 1.07 1.188 1.898 2.098 2.484.91.586 1.941.88 3.098.88 1.894 0 3.383-.622 4.457-1.864 1.078-1.246 1.613-2.961 1.613-5.145m10.727-7.879a2.615 2.615 0 0 0-1.305-.32c-1.371 0-2.059.863-2.059 2.594v1.89h2.871v1.66h-2.87v10.583h-1.962V14.309h-2.078v-1.66h2.078v-1.985c0-1.246.368-2.25 1.102-3.016.734-.765 1.668-1.148 2.797-1.148.597 0 1.07.074 1.426.219v1.77Zm6.754 0a2.61 2.61 0 0 0-1.301-.32c-1.371 0-2.059.863-2.059 2.594v1.89H71.2v1.66h-2.87v10.583h-1.962V14.309H64.29v-1.66h2.078v-1.985c0-1.246.367-2.25 1.102-3.016.734-.765 1.668-1.148 2.797-1.148.597 0 1.07.074 1.421.219Zm3.617-.226c0 .367-.13.672-.383.914a1.244 1.244 0 0 1-.906.363c-.36 0-.664-.113-.91-.351-.247-.235-.372-.543-.372-.926 0-.344.121-.64.364-.89.246-.25.55-.376.914-.376.367 0 .675.121.922.371.246.246.37.543.37.895m-.335 16.629h-1.961V12.645h1.96Zm11.191-.559c-.95.574-2.07.86-3.36.86-1.116 0-2.116-.258-3.007-.77a5.368 5.368 0 0 1-2.074-2.184c-.492-.941-.739-1.996-.739-3.168 0-2.023.579-3.648 1.739-4.878 1.16-1.227 2.703-1.84 4.633-1.84 1.066 0 2.011.207 2.832.62v2.009c-.914-.637-1.887-.957-2.918-.957-1.266 0-2.297.453-3.09 1.359-.793.902-1.188 2.07-1.188 3.508 0 1.43.375 2.554 1.13 3.383.753.828 1.76 1.242 3.03 1.242 1.067 0 2.07-.348 3.012-1.051Zm12.047-5.07h-8.644c.035 1.379.398 2.433 1.097 3.164.695.726 1.66 1.09 2.895 1.09 1.386 0 2.652-.446 3.793-1.336v1.828c-1.07.789-2.489 1.183-4.258 1.183-1.746 0-3.106-.562-4.09-1.69-.98-1.13-1.469-2.688-1.469-4.68 0-1.212.246-2.317.735-3.317.492-1.004 1.168-1.777 2.027-2.328a5.247 5.247 0 0 1 2.867-.824c1.586 0 2.824.515 3.715 1.547.887 1.03 1.332 2.476 1.332 4.335Zm-2.008-1.66c-.015-1.133-.289-2.012-.82-2.641-.527-.625-1.277-.937-2.238-.937-.91 0-1.688.328-2.332.98-.649.652-1.055 1.52-1.22 2.594Zm16.926 2.437c0 1.547-.555 2.793-1.66 3.735-1.11.945-2.563 1.418-4.363 1.418-1.637 0-2.934-.313-3.899-.934v-2.102c1.156.907 2.477 1.36 3.969 1.36 1.203 0 2.16-.297 2.875-.89.715-.59 1.07-1.395 1.07-2.407 0-2.242-1.594-3.36-4.781-3.36h-1.422v-1.664h1.348c2.824 0 4.234-1.05 4.234-3.156 0-1.945-1.078-2.918-3.23-2.918-1.207 0-2.344.406-3.407 1.223V8.438c1.094-.653 2.391-.981 3.899-.981 1.418 0 2.562.375 3.437 1.129.871.754 1.309 1.742 1.309 2.96 0 2.255-1.14 3.708-3.418 4.352v.047c1.207.137 2.187.575 2.93 1.317.738.742 1.109 1.664 1.109 2.773m12.898-.586c0 1.086-.23 2.067-.699 2.953-.465.883-1.105 1.57-1.93 2.055-.82.488-1.742.73-2.761.73-1.715 0-3.059-.687-4.035-2.066-.977-1.379-1.465-3.305-1.465-5.777 0-1.961.289-3.692.867-5.192.578-1.504 1.398-2.66 2.457-3.472 1.059-.817 2.281-1.223 3.668-1.223 1.184 0 2.129.164 2.848.492v1.852a6.06 6.06 0 0 0-2.797-.68c-1.516 0-2.727.68-3.64 2.04-.915 1.359-1.372 3.167-1.372 5.433h.05c.79-1.621 2.09-2.43 3.907-2.43 1.484 0 2.672.484 3.567 1.453.89.969 1.335 2.246 1.335 3.832m-2.007.25c0-1.195-.293-2.14-.88-2.832-.585-.695-1.402-1.039-2.456-1.039-.953 0-1.758.336-2.414 1.008-.653.672-.98 1.488-.98 2.445 0 1.203.323 2.211.976 3.02.648.808 1.468 1.21 2.457 1.21.98 0 1.773-.35 2.383-1.054.609-.707.914-1.625.914-2.758m13.546-.047c0 1.668-.55 3.004-1.656 4.02-1.101 1.008-2.578 1.515-4.418 1.515-1.593 0-2.777-.238-3.55-.718V22.39c1.164.75 2.355 1.125 3.574 1.125 1.21 0 2.187-.34 2.93-1.02.742-.68 1.113-1.59 1.113-2.723 0-1.117-.375-1.992-1.125-2.625-.75-.632-1.836-.949-3.262-.949-1.14 0-2.11.047-2.906.137l.586-8.59h7.925v1.766h-6.23l-.344 5.035 1.578-.063c1.786 0 3.196.454 4.23 1.356 1.036.898 1.555 2.172 1.555 3.812M31.45 28.215V4.457L22.937 2 7.634 7.746l-.04.008.005 17.18 5.222-2.047V8.91l10.118-2.418-.004 20.551-15.329-2.11 15.329 5.66v.005l8.515-2.356Zm0 0" fill="rgb(92.156863%, 23.529412%, 0%)"/></svg>
